<?xml version="1.0" encoding="UTF-8"?>
<map version="1.10" tiledversion="1.12.1" orientation="orthogonal" renderorder="right-down" width="32" height="32" tilewidth="32" tileheight="32" infinite="0" nextlayerid="4" nextobjectid="227">
 <layer id="1" name="mapa" width="32" height="32">
  <data encoding="csv">
0,0,0,0,0,0,0,0,0,0,0,0,0,0,0,0,0,0,0,0,0,0,0,0,0,0,0,0,0,0,0,0,
0,0,0,0,0,0,0,0,0,0,0,0,0,0,0,0,0,0,0,0,0,0,0,0,0,0,0,0,0,0,0,0,
0,0,0,0,0,0,0,0,0,0,0,0,0,0,0,0,0,0,0,0,0,0,0,0,0,0,0,0,0,0,0,0,
0,0,0,0,0,0,0,0,0,0,0,0,0,0,0,0,0,0,0,0,0,0,0,0,0,0,0,0,0,0,0,0,
0,0,0,0,0,0,0,0,0,0,0,0,0,0,0,0,0,0,0,0,0,0,0,0,0,0,0,0,0,0,0,0,
0,0,0,0,0,0,0,0,0,0,0,0,0,0,0,0,0,0,0,0,0,0,0,0,0,0,0,0,0,0,0,0,
0,0,0,0,0,0,0,0,0,0,0,0,0,0,0,0,0,0,0,0,0,0,0,0,0,0,0,0,0,0,0,0,
0,0,0,0,0,0,0,0,0,0,0,0,0,0,0,0,0,0,0,0,0,0,0,0,0,0,0,0,0,0,0,0,
0,0,0,0,0,0,0,0,0,0,0,0,0,0,0,0,0,0,0,0,0,0,0,0,0,0,0,0,0,0,0,0,
0,0,0,0,0,0,0,0,0,0,0,0,0,0,0,0,0,0,0,0,0,0,0,0,0,0,0,0,0,0,0,0,
0,0,0,0,0,0,0,0,0,0,0,0,0,0,0,0,0,0,0,0,0,0,0,0,0,0,0,0,0,0,0,0,
0,0,0,0,0,0,0,0,0,0,0,0,0,0,0,0,0,0,0,0,0,0,0,0,0,0,0,0,0,0,0,0,
0,0,0,0,0,0,0,0,0,0,0,0,0,0,0,0,0,0,0,0,0,0,0,0,0,0,0,0,0,0,0,0,
0,0,0,0,0,0,0,0,0,0,0,0,0,0,0,0,0,0,0,0,0,0,0,0,0,0,0,0,0,0,0,0,
0,0,0,0,0,0,0,0,0,0,0,0,0,0,0,0,0,0,0,0,0,0,0,0,0,0,0,0,0,0,0,0,
0,0,0,0,0,0,0,0,0,0,0,0,0,0,0,0,0,0,0,0,0,0,0,0,0,0,0,0,0,0,0,0,
0,0,0,0,0,0,0,0,0,0,0,0,0,0,0,0,0,0,0,0,0,0,0,0,0,0,0,0,0,0,0,0,
0,0,0,0,0,0,0,0,0,0,0,0,0,0,0,0,0,0,0,0,0,0,0,0,0,0,0,0,0,0,0,0,
0,0,0,0,0,0,0,0,0,0,0,0,0,0,0,0,0,0,0,0,0,0,0,0,0,0,0,0,0,0,0,0,
0,0,0,0,0,0,0,0,0,0,0,0,0,0,0,0,0,0,0,0,0,0,0,0,0,0,0,0,0,0,0,0,
0,0,0,0,0,0,0,0,0,0,0,0,0,0,0,0,0,0,0,0,0,0,0,0,0,0,0,0,0,0,0,0,
0,0,0,0,0,0,0,0,0,0,0,0,0,0,0,0,0,0,0,0,0,0,0,0,0,0,0,0,0,0,0,0,
0,0,0,0,0,0,0,0,0,0,0,0,0,0,0,0,0,0,0,0,0,0,0,0,0,0,0,0,0,0,0,0,
0,0,0,0,0,0,0,0,0,0,0,0,0,0,0,0,0,0,0,0,0,0,0,0,0,0,0,0,0,0,0,0,
0,0,0,0,0,0,0,0,0,0,0,0,0,0,0,0,0,0,0,0,0,0,0,0,0,0,0,0,0,0,0,0,
0,0,0,0,0,0,0,0,0,0,0,0,0,0,0,0,0,0,0,0,0,0,0,0,0,0,0,0,0,0,0,0,
0,0,0,0,0,0,0,0,0,0,0,0,0,0,0,0,0,0,0,0,0,0,0,0,0,0,0,0,0,0,0,0,
0,0,0,0,0,0,0,0,0,0,0,0,0,0,0,0,0,0,0,0,0,0,0,0,0,0,0,0,0,0,0,0,
0,0,0,0,0,0,0,0,0,0,0,0,0,0,0,0,0,0,0,0,0,0,0,0,0,0,0,0,0,0,0,0,
0,0,0,0,0,0,0,0,0,0,0,0,0,0,0,0,0,0,0,0,0,0,0,0,0,0,0,0,0,0,0,0,
0,0,0,0,0,0,0,0,0,0,0,0,0,0,0,0,0,0,0,0,0,0,0,0,0,0,0,0,0,0,0,0,
0,0,0,0,0,0,0,0,0,0,0,0,0,0,0,0,0,0,0,0,0,0,0,0,0,0,0,0,0,0,0,0
</data>
 </layer>
 <imagelayer id="2" name="fundo">
  <image source="mapa.png" width="1024" height="1024"/>
 </imagelayer>
 <objectgroup id="3" name="colisoes">
  <object id="2" x="2" y="692" width="166" height="332"/>
  <object id="4" x="2" y="544" width="84" height="144"/>
  <object id="5" x="2" y="2" width="24" height="536"/>
  <object id="6" x="4" y="0" width="1018" height="32"/>
  <object id="7" x="994" y="30" width="30" height="992"/>
  <object id="8" x="170" y="752" width="86" height="272"/>
  <object id="9" x="262" y="898" width="168" height="124"/>
  <object id="11" x="504" y="882" width="522" height="140"/>
  <object id="12" x="258" y="882" width="106" height="20"/>
  <object id="13" x="258" y="720" width="14" height="156"/>
  <object id="14" x="258" y="718" width="172" height="16"/>
  <object id="15" x="480" y="718" width="160" height="16"/>
  <object id="16" x="624" y="728" width="20" height="148"/>
  <object id="18" x="612" y="448" width="18" height="150"/>
  <object id="19" x="632" y="478" width="90" height="20"/>
  <object id="20" x="706" y="498" width="18" height="160"/>
  <object id="21" x="706" y="656" width="18" height="8"/>
  <object id="22" x="548" y="690" width="116" height="44"/>
  <object id="23" x="642" y="732" width="82" height="146"/>
  <object id="24" x="724" y="826" width="268" height="54"/>
  <object id="25" x="724" y="540" width="92" height="18"/>
  <object id="26" x="872" y="540" width="124" height="18"/>
  <object id="27" x="708" y="306" width="296" height="12"/>
  <object id="28" x="706" y="316" width="16" height="44"/>
  <object id="29" x="706" y="360" width="16" height="56"/>
  <object id="31" x="466" y="544" width="146" height="16"/>
  <object id="33" x="338" y="544" width="74" height="28"/>
  <object id="34" x="208" y="542" width="150" height="28"/>
  <object id="35" x="298" y="444" width="52" height="92"/>
  <object id="36" x="298" y="272" width="52" height="126"/>
  <object id="37" x="268" y="270" width="180" height="16"/>
  <object id="38" x="506" y="268" width="120" height="18"/>
  <object id="39" x="612" y="284" width="16" height="116"/>
  <object id="40" x="580" y="178" width="14" height="86"/>
  <object id="41" x="578" y="32" width="14" height="104"/>
  <object id="42" x="630" y="276" width="72" height="96"/>
  <object id="43" x="630" y="364" width="28" height="36"/>
  <object id="44" x="660" y="268" width="36" height="12"/>
  <object id="45" x="658" y="372" width="46" height="14"/>
  <object id="46" x="658" y="384" width="50" height="14"/>
  <object id="47" x="354" y="290" width="96" height="54"/>
  <object id="48" x="350" y="344" width="100" height="6"/>
  <object id="49" x="506" y="286" width="106" height="38"/>
  <object id="50" x="526" y="324" width="84" height="16"/>
  <object id="51" x="20" y="272" width="190" height="16"/>
  <object id="52" x="30" y="32" width="546" height="48"/>
  <object id="53" x="30" y="82" width="106" height="20"/>
  <object id="55" x="32" y="102" width="34" height="166"/>
  <object id="57" x="136" y="78" width="202" height="12"/>
  <object id="58" x="386" y="78" width="92" height="18"/>
  <object id="59" x="538" y="80" width="40" height="20"/>
  <object id="60" x="546" y="98" width="32" height="18"/>
  <object id="61" x="592" y="32" width="404" height="26"/>
  <object id="63" x="594" y="56" width="400" height="12"/>
  <object id="64" x="592" y="68" width="130" height="28"/>
  <object id="65" x="800" y="68" width="194" height="26"/>
  <object id="66" x="926" y="92" width="66" height="40"/>
  <object id="68" x="968" y="156" width="26" height="146"/>
  <object id="69" x="28" y="290" width="86" height="118"/>
  <object id="70" x="30" y="408" width="28" height="134"/>
  <object id="71" x="64" y="466" width="22" height="36"/>
  <object id="72" x="72" y="430" width="4" height="30"/>
  <object id="74" x="58" y="542" width="92" height="34"/>
  <object id="75" x="86" y="578" width="56" height="24"/>
  <object id="77" x="216" y="570" width="186" height="28"/>
  <object id="78" x="466" y="558" width="146" height="18"/>
  <object id="79" x="476" y="576" width="138" height="22"/>
  <object id="80" x="612" y="596" width="52" height="20"/>
  <object id="81" x="630" y="498" width="34" height="98"/>
  <object id="82" x="666" y="502" width="40" height="8"/>
  <object id="83" x="668" y="398" width="40" height="26"/>
  <object id="84" x="760" y="764" width="104" height="60"/>
  <object id="85" x="726" y="560" width="62" height="60"/>
  <object id="86" x="722" y="620" width="64" height="6"/>
  <object id="87" x="790" y="558" width="24" height="34"/>
  <object id="88" x="870" y="556" width="124" height="34"/>
  <object id="89" x="878" y="618" width="116" height="28"/>
  <object id="90" x="914" y="590" width="80" height="28"/>
  <object id="91" x="962" y="642" width="30" height="178"/>
  <object id="92" x="890" y="684" width="26" height="72"/>
  <object id="93" x="884" y="702" width="2" height="44"/>
  <object id="94" x="926" y="660" width="30" height="106"/>
  <object id="95" x="916" y="676" width="6" height="86"/>
  <object id="96" x="946" y="764" width="14" height="56"/>
  <object id="97" x="926" y="806" width="16" height="18"/>
  <object id="98" x="866" y="786" width="54" height="38"/>
  <object id="99" x="724" y="806" width="32" height="18"/>
  <object id="101" x="232" y="688" width="86" height="20"/>
  <object id="102" x="302" y="706" width="18" height="18"/>
  <object id="103" x="396" y="880" width="40" height="20"/>
  <object id="104" x="256" y="812" width="80" height="42"/>
  <object id="105" x="586" y="784" width="38" height="96"/>
  <object id="106" x="480" y="732" width="142" height="36"/>
  <object id="107" x="270" y="732" width="160" height="36"/>
  <object id="108" x="274" y="768" width="24" height="40"/>
  <object id="109" x="328" y="766" width="56" height="14"/>
  <object id="111" x="266" y="860" width="122" height="44"/>
  <object id="112" x="378" y="880" width="22" height="20"/>
  <object id="114" x="114" y="288" width="98" height="48"/>
  <object id="115" x="266" y="284" width="32" height="64"/>
  <object id="116" x="122" y="516" width="26" height="32"/>
  <object id="117" x="54" y="522" width="26" height="22"/>
  <object id="118" x="220" y="500" width="78" height="42"/>
  <object id="121" x="206" y="518" width="12" height="24"/>
  <object id="123" x="270" y="444" width="30" height="56"/>
  <object id="124" x="238" y="156" width="122" height="46"/>
  <object id="128" x="630.667" y="157.333" width="70" height="48.6667"/>
  <object id="129" x="784" y="170" width="89.3333" height="105.333"/>
  <object id="130" x="874" y="192.667" width="30" height="75.3333"/>
  <object id="131" x="785.333" y="275.333" width="87.3333" height="7.33333"/>
  <object id="132" x="724" y="248.667" width="60.6667" height="30.6667"/>
  <object id="133" x="758" y="204" width="25.3333" height="46.6667"/>
  <object id="134" x="773.333" y="183.333" width="10" height="20.6667"/>
  <object id="135" x="750" y="217.333" width="7.33333" height="32.6667"/>
  <object id="136" x="920" y="172.667" width="19.3333" height="74"/>
  <object id="137" x="564.667" y="214" width="13.3333" height="53.3333"/>
  <object id="138" x="579.333" y="264" width="14.6667" height="3.33333"/>
  <object id="139" x="548" y="238.667" width="15.3333" height="28.6667"/>
  <object id="140" x="542" y="254" width="8.66667" height="13.3333"/>
  <object id="141" x="530.667" y="193.333" width="32" height="37.3333"/>
  <object id="142" x="24" y="32.6667" width="42.6667" height="237.333"/>
  <object id="143" x="64" y="88" width="74" height="19.3333"/>
  <object id="144" x="64" y="106.667" width="21.3333" height="26.6667"/>
  <object id="145" x="391" y="80.5" width="88.5" height="23.5"/>
  <object id="146" x="388.5" y="96.5" width="73.5" height="12.5"/>
  <object id="147" x="395" y="110" width="37.5" height="4"/>
  <object id="148" x="533.5" y="80" width="5" height="20.5"/>
  <object id="149" x="546" y="116" width="31.5" height="6.5"/>
  <object id="150" x="556" y="123.5" width="22" height="8"/>
  <object id="151" x="592" y="96.6667" width="84.6667" height="18"/>
  <object id="152" x="591.333" y="114" width="23.3333" height="20"/>
  <object id="155" x="729.333" y="162" width="26.6667" height="46.6667"/>
  <object id="156" x="721.333" y="69.3333" width="79.3333" height="10"/>
  <object id="158" x="873.333" y="420" width="45.3333" height="64"/>
  <object id="159" x="874.667" y="484" width="118.667" height="10.6667"/>
  <object id="160" x="928.667" y="494" width="66" height="45.3333"/>
  <object id="161" x="878" y="512.667" width="12" height="26.6667"/>
  <object id="162" x="891.333" y="518.667" width="38" height="20"/>
  <object id="163" x="876.667" y="495.333" width="52" height="4"/>
  <object id="164" x="723.333" y="316.667" width="271.333" height="45.3333"/>
  <object id="165" x="758" y="402" width="52.6667" height="40"/>
  <object id="167" x="722.667" y="363.333" width="68.6667" height="15.3333"/>
  <object id="168" x="706" y="415.333" width="17.3333" height="24.6667"/>
  <object id="169" x="659.333" y="399.333" width="44.6667" height="30.6667"/>
  <object id="170" x="612" y="399.333" width="16" height="5.33333"/>
  <object id="172" x="791.333" y="361.333" width="136" height="12"/>
  <object id="173" x="940" y="422" width="24.6667" height="17.3333"/>
  <object id="174" x="928" y="448.667" width="16" height="36"/>
  <object id="175" x="919.333" y="457.333" width="6.66667" height="25.3333"/>
  <object id="176" x="943.333" y="438.667" width="50.6667" height="42.6667"/>
  <object id="177" x="968.667" y="362.667" width="25.3333" height="76.6667"/>
  <object id="178" x="964.667" y="420" width="3.33333" height="16.6667"/>
  <object id="179" x="839.333" y="373.333" width="87.3333" height="26"/>
  <object id="180" x="791.333" y="372" width="46.6667" height="6.66667"/>
  <object id="181" x="723.333" y="401.333" width="20" height="36"/>
  <object id="182" x="759.333" y="441.333" width="50.6667" height="15.3333"/>
  <object id="183" x="724" y="510.667" width="54" height="27.3333"/>
  <object id="184" x="756.667" y="504" width="12" height="4.66667"/>
  <object id="185" x="727.333" y="503.333" width="20" height="5.33333"/>
  <object id="186" x="759.333" y="489.333" width="6.66667" height="13.3333"/>
  <object id="188" x="720" y="484.667" width="22.6667" height="17.3333"/>
  <object id="189" x="924" y="362.667" width="44" height="6.66667"/>
  <object id="190" x="706" y="664" width="18" height="22"/>
  <object id="191" x="297.333" y="536" width="54" height="9.33333"/>
  <object id="192" x="347.333" y="448" width="51.3333" height="96.6667"/>
  <object id="194" x="473.333" y="524.667" width="27.3333" height="20"/>
  <object id="195" x="508.667" y="525.333" width="68" height="18.6667"/>
  <object id="196" x="583.333" y="482" width="30" height="63.3333"/>
  <object id="201" x="510" y="495.333" width="66" height="29.3333"/>
  <object id="202" x="418" y="445.333" width="46" height="15.3333"/>
  <object id="203" x="416.667" y="417.333" width="49.3333" height="26"/>
  <object id="204" x="497.333" y="403.333" width="43.3333" height="16"/>
  <object id="205" x="540.667" y="402.667" width="6.66667" height="10.6667"/>
  <object id="206" x="495.333" y="370.667" width="55.3333" height="30.6667"/>
  <object id="207" x="348.667" y="350.667" width="102.667" height="9.33333"/>
  <object id="208" x="350.667" y="360" width="22" height="32"/>
  <object id="209" x="272" y="346.667" width="25.3333" height="42.6667"/>
  <object id="210" x="252" y="377.333" width="17.3333" height="28"/>
  <object id="211" x="253.333" y="433.333" width="16" height="18.6667"/>
  <object id="212" x="252" y="466.667" width="16" height="20"/>
  <object id="213" x="232" y="708" width="68.6667" height="44.6667"/>
  <object id="214" x="168.667" y="720.667" width="28.6667" height="30.6667"/>
  <object id="217" x="596" y="205" width="18" height="61"/>
  <object id="218" x="968" y="130" width="26" height="25"/>
  <object id="221" x="722.333" y="378.667" width="28.3333" height="22.6667"/>
  <object id="224" x="390.333" y="155.667" width="107.667" height="47"/>
  <object id="225" x="547" y="438" width="33.5" height="15.5"/>
 </objectgroup>
</map>
