<?xml version="1.0" encoding="UTF-8"?>
<map version="1.10" tiledversion="1.12.1" orientation="orthogonal" renderorder="right-down" width="25" height="19" tilewidth="32" tileheight="32" infinite="0" nextlayerid="5" nextobjectid="57">
 <layer id="1" name="Camada de Blocos 1" width="25" height="19">
  <data encoding="csv">
0,0,0,0,0,0,0,0,0,0,0,0,0,0,0,0,0,0,0,0,0,0,0,0,0,
0,0,0,0,0,0,0,0,0,0,0,0,0,0,0,0,0,0,0,0,0,0,0,0,0,
0,0,0,0,0,0,0,0,0,0,0,0,0,0,0,0,0,0,0,0,0,0,0,0,0,
0,0,0,0,0,0,0,0,0,0,0,0,0,0,0,0,0,0,0,0,0,0,0,0,0,
0,0,0,0,0,0,0,0,0,0,0,0,0,0,0,0,0,0,0,0,0,0,0,0,0,
0,0,0,0,0,0,0,0,0,0,0,0,0,0,0,0,0,0,0,0,0,0,0,0,0,
0,0,0,0,0,0,0,0,0,0,0,0,0,0,0,0,0,0,0,0,0,0,0,0,0,
0,0,0,0,0,0,0,0,0,0,0,0,0,0,0,0,0,0,0,0,0,0,0,0,0,
0,0,0,0,0,0,0,0,0,0,0,0,0,0,0,0,0,0,0,0,0,0,0,0,0,
0,0,0,0,0,0,0,0,0,0,0,0,0,0,0,0,0,0,0,0,0,0,0,0,0,
0,0,0,0,0,0,0,0,0,0,0,0,0,0,0,0,0,0,0,0,0,0,0,0,0,
0,0,0,0,0,0,0,0,0,0,0,0,0,0,0,0,0,0,0,0,0,0,0,0,0,
0,0,0,0,0,0,0,0,0,0,0,0,0,0,0,0,0,0,0,0,0,0,0,0,0,
0,0,0,0,0,0,0,0,0,0,0,0,0,0,0,0,0,0,0,0,0,0,0,0,0,
0,0,0,0,0,0,0,0,0,0,0,0,0,0,0,0,0,0,0,0,0,0,0,0,0,
0,0,0,0,0,0,0,0,0,0,0,0,0,0,0,0,0,0,0,0,0,0,0,0,0,
0,0,0,0,0,0,0,0,0,0,0,0,0,0,0,0,0,0,0,0,0,0,0,0,0,
0,0,0,0,0,0,0,0,0,0,0,0,0,0,0,0,0,0,0,0,0,0,0,0,0,
0,0,0,0,0,0,0,0,0,0,0,0,0,0,0,0,0,0,0,0,0,0,0,0,0
</data>
 </layer>
 <imagelayer id="3" name="fundo">
  <image source="labo.png" width="1536" height="1024"/>
 </imagelayer>
 <objectgroup id="4" name="colisoes">
  <object id="4" x="254.667" y="393.333" width="404" height="182.667"/>
  <object id="13" x="872" y="394.667" width="425.333" height="182.667"/>
  <object id="14" x="214.667" y="693.333" width="452" height="193.333"/>
  <object id="15" x="876" y="696" width="448" height="192"/>
  <object id="18" x="1" y="-6" width="1537" height="330"/>
  <object id="24" x="-20" y="982" width="712" height="76"/>
  <object id="25" x="847" y="981" width="712" height="76"/>
  <object id="42" x="0" y="324" width="114" height="78"/>
  <object id="49" x="1423" y="324" width="114" height="78"/>
  <object id="43" x="0" y="400" width="104" height="68"/>
  <object id="51" x="1433" y="400" width="104" height="68"/>
  <object id="44" x="2" y="464" width="98" height="58"/>
  <object id="52" x="1439" y="464" width="98" height="58"/>
  <object id="45" x="2" y="522" width="84" height="50"/>
  <object id="53" x="1450" y="522" width="84" height="50"/>
  <object id="46" x="2" y="570" width="72" height="54"/>
  <object id="54" x="1460" y="570" width="72" height="54"/>
  <object id="47" x="0" y="622" width="64" height="358"/>
  <object id="55" x="1468" y="622" width="64" height="358"/>
 </objectgroup>
</map>
